Catalina-dark/actions/22/draw-cuboid.svg

<svg xmlns="http://www.w3.org/2000/svg" viewBox="0 0 22 22">
  <defs id="defs3051">
    <style type="text/css" id="current-color-scheme">
      .ColorScheme-Text {
        color:#f2f2f2;
      }
      </style>
  </defs>
 <path 
     style="fill:currentColor;fill-opacity:1;stroke:none" 
     d="M 11 0.41210938 C 10.2585 0.88270937 10.993 0.41209063 10.21875 0.90039062 L 2 6.3691406 L 2 7.5878906 L 2 15.181641 L 2 15.587891 C 3.14882 16.339591 2.22209 15.732191 2.75 16.087891 L 10.09375 20.994141 C 10.9891 21.590341 10.10175 20.994091 11 21.587891 C 19.02331 16.263691 17.05377 17.574091 19.375 16.025391 C 20.00661 15.563791 19.49219 15.930441 20 15.556641 L 20 15.212891 L 20 15.181641 L 20 7.5878906 L 20 6.3691406 C 17.6762 4.8224406 19.66009 6.1425406 19.4375 5.9941406 L 11.78125 0.90039062 L 11.375 0.65039062 C 11.09224 0.46839062 12.59837 1.4412094 11 0.41210938 z M 10.5 1.9316406 L 10.5 9.6816406 L 10.4375 9.7753906 L 10.21875 9.9003906 L 3 14.712891 L 3 6.9316406 L 10.5 1.9316406 z M 11.5 1.9316406 L 19 6.9316406 L 19 14.556641 L 11.5 9.5566406 L 11.5 1.9316406 z M 11.125 10.525391 L 18.4375 15.400391 L 11 20.369141 L 3.65625 15.494141 L 10.78125 10.744141 L 11.125 10.525391 z "
     class="ColorScheme-Text"
     />
 <path 
     style="fill:currentColor;fill-opacity:0.2;stroke:none" 
     d="M 10.582031 1.875 C 10.569361 1.875 8.8326563 3.0222281 6.7226562 4.4238281 L 2.8867188 6.9726562 L 2.8867188 10.929688 C 2.8867188 13.107088 2.8980094 14.888672 2.9121094 14.888672 C 2.9261894 14.888672 4.6628944 13.740137 6.7714844 12.335938 L 10.605469 9.7832031 L 10.605469 5.828125 C 10.605469 3.653325 10.594731 1.875 10.582031 1.875 z "
     class="ColorScheme-Text"
     />
 <path 
     style="fill:currentColor;fill-opacity:0.4;stroke:none" 
     d="M 11.089844 10.394531 C 10.975114 10.399231 3.4068719 15.505828 3.4511719 15.548828 C 3.4730919 15.569928 5.1727156 16.713391 7.2285156 18.087891 C 9.2843156 19.462391 10.977987 20.580312 10.992188 20.570312 C 11.632198 20.155512 18.594562 15.444875 18.601562 15.421875 C 18.616593 15.372075 11.174144 10.394531 11.089844 10.394531 z "
     class="ColorScheme-Text"
     />
 <path 
     style="fill:currentColor;fill-opacity:0.6;stroke:none" 
     d="M 11.427734 1.8125 C 11.415134 1.8125 11.403577 3.563625 11.404297 5.703125 L 11.40625 9.5917969 L 15.238281 12.15625 C 17.345391 13.56625 19.074078 14.722656 19.080078 14.722656 C 19.086478 14.724356 19.091797 12.969919 19.091797 10.824219 L 19.091797 6.9238281 L 15.271484 4.3671875 C 13.170024 2.9616875 11.440334 1.8125 11.427734 1.8125 z "
     class="ColorScheme-Text"
     />
</svg>

<svg viewBox="0 0 22 22" xmlns="http://www.w3.org/2000/svg">
<defs>
<style id="current-color-scheme" type="text/css">.ColorScheme-Text {
        color:#f2f2f2;
      }</style>
</defs>
<path class="ColorScheme-Text" d="m11 0.41211c-0.7415 0.4706-7e-3 -1.875e-5 -0.78125 0.48828l-8.2188 5.4687v9.2188c1.1488 0.7517 0.22209 0.1443 0.75 0.5l7.3438 4.9062c0.89535 0.5962 8e-3 -5e-5 0.90625 0.59375 8.0233-5.3242 6.0538-4.0138 8.375-5.5625 0.63161-0.4616 0.11719-0.09495 0.625-0.46875v-9.1876c-2.3238-1.5467-0.33991-0.2266-0.5625-0.375l-7.6562-5.0937-0.40625-0.25c-0.28276-0.182 1.2234 0.79082-0.375-0.23828zm-0.5 1.5195v7.75l-0.0625 0.09375-0.21875 0.125-7.2188 4.8125v-7.7813l7.5-5zm1 0 7.5 5v7.625l-7.5-5v-7.625zm-0.375 8.5938 7.3125 4.875-7.4375 4.9688-7.3438-4.875 7.125-4.75 0.34375-0.21875z" fill="currentColor"/>
<path class="ColorScheme-Text" d="m10.582 1.875c-0.01267 0-1.7494 1.1472-3.8594 2.5488l-3.8359 2.5488v3.957c0 2.1774 0.011291 3.959 0.025391 3.959 0.01408 0 1.7508-1.1485 3.8594-2.5527l3.834-2.5527v-3.9551c0-2.1748-0.010738-3.9531-0.023438-3.9531z" fill="currentColor" fill-opacity=".2"/>
<path class="ColorScheme-Text" d="m11.09 10.395c-0.11473 0.0047-7.683 5.1113-7.6387 5.1543 0.02192 0.0211 1.7215 1.1646 3.7773 2.5391s3.7495 2.4924 3.7637 2.4824c0.64001-0.4148 7.6024-5.1254 7.6094-5.1484 0.015031-0.0498-7.4274-5.0273-7.5117-5.0273z" fill="currentColor" fill-opacity=".4"/>
<path class="ColorScheme-Text" d="m11.428 1.8125c-0.0126 0-0.024157 1.7511-0.023437 3.8906l0.001953 3.8887 3.832 2.5645c2.1071 1.41 3.8358 2.5664 3.8418 2.5664 0.0064 0.0017 0.011719-1.7527 0.011719-3.8984v-3.9004l-3.8203-2.5566c-2.1015-1.4055-3.8312-2.5547-3.8438-2.5547z" fill="currentColor" fill-opacity=".6"/>
</svg>
